public/icons/icon/ruler.svg

<svg width="30" height="30" viewBox="0 0 30 30" fill="none" xmlns="http://www.w3.org/2000/svg">
<path d="M21.0001 4.5001V9.0001M25.0001 5.5001V9.0001M4.50005 21.0001H9.00005M5.50005 17L9.00012 17.0001M5.50005 25.0001H9.00005M2 9.0001L9.00012 9.00014M9.00012 9.00014L9.00005 2M9.00012 9.00014L29 9V1H1V29H9L9.00012 9.00014ZM17 5.5001V9.0001M5.5 13L9.00007 13.0001M13 5.50012V9.00012" stroke="black" stroke-width="2" stroke-linecap="round" stroke-linejoin="round"/>
</svg>

<svg xmlns="http://www.w3.org/2000/svg" width="30" height="30" fill="none"><path stroke="#000" stroke-linecap="round" stroke-linejoin="round" stroke-width="2" d="M21 4.5V9m4-3.5V9M4.5 21H9m-3.5-4H9m-3.5 8H9M2 9h7m0 0V2m0 7h20V1H1v28h8V9Zm8-3.5V9M5.5 13H9m4-7.5V9"/></svg>
